X: 1
T: Stary ghed ma lousa Voem
B: A COLECTION of the most Celebrated Irish Tunes2 p.9a
M: C
L: 1/8
K: F
|:\
Ac de f4 | (fg/a/) Tg>f f4 | (fg/a/) gf d<c ag | f2 (ed) d2 (d/e/f/g/) |
a2 (ag) (gf) f2 | (ed) (cA) (ag) (fd) | cA GA G2 F2 | F8 :|
|:\
(DC) (DF) F4 | (AG) (Ac) c4 | (df) (cA) (GF) B2 | (cd/e/) f2 (fd) d2 |
(dc) (cB) B2 (BA) | AG Ac f2 (ed) | d4 (de fg) | a2 (ag) (gf) f2 |
(ed) (cA) (ag) (fd) | (cA) (GA) G2 F2 | F8 ::[M:6/4] f3gf2 f2c2f2 |
g3ag2 f2d2f2 | (fg)a2g2 f2d2f2 | g6 g4fg | a4g2 f2d2e2 |
f3gag f2d2c2 | d3cde f2c2A2 | TG6 F6 :|
|:\
C4F2 F2C2F2 | G4c2 c2F2c2 | d2F2d2 c2F2c2 | d6 d4fg |
a4(ga) f2d2e2 | fefgag fgfdc2 | d3cde (fe)(dc)(BA) | G6 F6 :|
